X: 4063
T: Blessings Of Silver, The
R: reel
M: 4/4
K: Gminor
d/c/||BdAF DGGF|(3D=EF CF DFCF|DGGA Bcdg|g^fdg fdcA|
Bdce dcBA|DGAG FDCA,|DGGA Bcdg|^fdcA G3:|
g/a/|bga^f gfdc|=Bcd=e fdcd|bga=e f2 ge|fdcA BGGg|
(3bag (3ag^f gfdc|=Bcd=e fefa|gaag fag=e|1 =fdcA G3:|2 =fdcA G3:|

